images/arrow-up.svg

<svg width="32" height="32" viewBox="0 0 32 32" fill="none" xmlns="http://www.w3.org/2000/svg">
<g clip-path="url(#clip0_4200_26839)">
<path d="M5.00707 10.2833C4.56307 10.7123 4.56307 11.4263 5.00707 11.8703C5.43607 12.2993 6.15007 12.2993 6.57807 11.8703L14.6251 3.82328L14.6251 30.3773C14.6261 30.9963 15.1181 31.4883 15.7371 31.4883C16.3561 31.4883 16.8641 30.9963 16.8641 30.3773L16.8641 3.82328L24.8961 11.8703C25.3401 12.2993 26.0551 12.2993 26.4831 11.8703C26.9271 11.4263 26.9271 10.7113 26.4831 10.2833L16.5311 0.331282C16.1021 -0.112718 15.3881 -0.112718 14.9601 0.331282L5.00707 10.2833Z" fill="#1F1F1F"/>
</g>
<defs>
<clipPath id="clip0_4200_26839">
<rect width="31.49" height="31.49" fill="white" transform="matrix(0 -1 1 0 0 31.4883)"/>
</clipPath>
</defs>
</svg>

<svg width="32" height="32" fill="none" xmlns="http://www.w3.org/2000/svg"><g clip-path="url(#clip0_4200_26839)"><path d="M5.007 10.283a1.112 1.112 0 000 1.587 1.12 1.12 0 001.571 0l8.047-8.047v26.554a1.106 1.106 0 001.112 1.111c.62 0 1.127-.492 1.127-1.11V3.822l8.032 8.047c.444.43 1.16.43 1.587 0a1.112 1.112 0 000-1.587L16.531.331a1.093 1.093 0 00-1.57 0l-9.954 9.952z" fill="#1F1F1F"/></g><defs><clipPath id="clip0_4200_26839"><path fill="#fff" transform="rotate(-90 15.744 15.744)" d="M0 0h31.49v31.49H0z"/></clipPath></defs></svg>
